X:524
T: Der Kirchenruber Peter Paulus (229a), S. 491
N: T0412
O: Luxemburg
S: Singendes Volk, Esch-Alzette, 1937 posth.]
N: Savelborn, fff Leny Goerens, 6.2.1916
R: Berufslied]
M: 4/4
L: 1/8
K: G
DDG | G2GGAGFE | EDz4
DG | G2G2AGFE | ED2z2
GFG | AFD2zGGB | B2A2z
AAB | dc3B2cA | G2z3

@@@ Tune index: 8578
